X:1
T:Title
%%score { ( 1 3 ) | ( 2 4 5 ) }
L:1/8
Q:1/4=100
M:4/4
K:Eb
V:1 treble nm="Grand Piano"
V:3 treble 
V:2 bass 
V:4 bass 
V:5 bass 
V:1
 E2 G>A B2 c[Ad] | [Ge]>[Ge] [Ge][Ge] [Fd]2 z2 | [EAc]2 [EAc]>[EAc] [EGB]2 [B,EG][B,EG] | %3
w: Asa~Hull * * * * *|||
 [B,FA][B,FA] [B,EG]2 [B,DF]2 z2 | E2 G>A B2 c[Ad] | [Ge]>[Ge] [Ge][Ge] [Fd]2 z2 | %6
w: |||
 [Ge]2 [GB][G_d] [EAc]2 [A,CA][A,CF] | [G,B,E]2 [B,DG]>[A,DF] [G,E]4 | B6 z2 | c6 z2 | B4 z4 | %11
w: |||||
 [Ge]>[Ge] [Ge][Ge] [Fd]2 z2 | [Ge]>e e[GB] [Ac]<[GB] z2 | [Ge]>e e[GB] [Ac]<[GB] z z/ [Ge]/ | %14
w: |||
 [Ge]2 [Ac]>[Ge] [Ge]2 [GB]>[Ge] |[M:5/4] [Ge]2 .[Fd]2 [Ge]6 |] %16
w: ||
V:2
 E,2 G,>A, B,2 [A,EA][F,B,] | [E,B,]>[E,B,] [E,B,][E,B,] [B,,B,]2 z2 | A,2 A,>A, E,2 E,E, | %3
 D,D, E,2 B,,2 z2 | E,2 G,>A, B,2 [A,EA][F,B,] | [E,B,]>[E,B,] [E,B,][E,B,] [B,,B,]2 z2 | %6
 [E,B,]2 [E,E][E,E] A,,2 A,,A,, | B,,2 B,,>B,, E,4 | [E,E]>[E,E] [E,E][E,E] [E,E]<[E,E] z2 | %9
 [A,EA]>[A,E] [A,E][A,E] [A,E]<[A,E] z2 | [E,E]>[E,E] [E,E][E,E] [E,E]<[E,E] [A,EA][F,B,] | %11
 [E,B,]>[E,B,] [E,B,][E,B,] [B,,B,]2 z2 | z z/[K:treble] G/ G[K:bass][E,E] [E,E]<[E,E] z2 | %13
 z z/[K:treble] G/ G[K:bass][E,E] [E,E]<[E,E] z z/ [E,B,]/ | %14
 [E,B,]2 [E,E]>[E,B,] [E,B,]2 [E,E]>[G,B,] |[M:5/4] z2 z A [E,B,]6 |] %16
V:3
 x8 | x8 | x8 | x8 | x8 | x8 | x8 | x8 | G>G GG G<G z2 | z z/ A/ AA A<A z2 | G>G GG G<G c[Ad] | %11
 x8 | x8 | x8 | x8 |[M:5/4] x10 |] %16
V:4
 x8 | x8 | x8 | x8 | x8 | x8 | x8 | x8 | x8 | x8 | x8 | x8 | [E,B,]4[K:treble][K:bass] z4 | %13
 [E,B,]4[K:treble][K:bass] z4 | x8 |[M:5/4] B,4 z2 z4 |] %16
V:5
 x8 | x8 | x8 | x8 | x8 | x8 | x8 | x8 | x8 | x8 | x8 | x8 | x3/2[K:treble] x3/2[K:bass] x5 | %13
 x3/2[K:treble] x3/2[K:bass] x5 | x8 |[M:5/4] z2 B,,2 z2 z4 |] %16

